X: 44
T:Golden Castle, The
M:C|
L:1/8
S:Martin Hayes
R:hornpipe
K:GDor
G>F|D>GG>F G2 (3ABc|d>cd>e f2 g>a|g>fd>c A>dc>A|G>A (3GFD F2 G>F|
D>GG>F G2 (3ABc|d>c (3cde f2 g>a|g>fd>c A>dc>A|G2 G>F G2 :|
|:(3ABc|d>gg>a b2 a>g|g>fd>e f2 g>a |g>fd>c A>dc>A|G>A (3GFD F2 G>F|
D>GG>F G2 (3ABc|d>c (3cde f2 g>a|g>fd>c A>dc>A|G2 G>F G2 :|
